m7 $ degradeBy 0.1 $ slow 2 $ cat [n " [c4, e4] [d4, f4] [e4, g4]", n "f4"] # dur (rand + 10) # gain 1

m8 $ degradeBy 0.1 $ slow 2 $ cat [n " [g5, b5] [a5, c6] [b4, d5]", n "a5"] # dur (rand + 10) # gain 1
