do
let kick = s "jd:23 jd:23 ~ ~" # nudge ((slow 49) $ scale (0.005) (-0.005) rand) # gain (slow 29 $ scale (0.85) (1) rand)
let snare = cat [s "~ ~ mydrums:487 ~", s "~ ~ mydrums:487? ~"] # nudge ((slow 28) $ scale (0.01) (-0.01) rand) # gain 0.75 # legato (slow 29 $ scale (0.7) (1) sine1) # gain (slow 29 $ scale (0.8) (0.9) rand)
let hihat = s "jd:98*4" # nudge ((slow 25) $ scale (0.03) (-0.03) rand) # gain (slow 23 $ scale (0.6) (0.82) rand) # legato (slow 28 $ scale (0.4) (0.8) rand)
let tom = s "~ ~ ~ mydrums:1454?" # nudge ((slow 49) $ scale (0.005) (-0.005) rand) # gain (slow 29 $ scale (0.65) (0.85) rand)
d1 $ stack [kick, snare, hihat, tom] # orbit 1
